packages/icons/src/thumb-up-fill.svg

<svg width="24" height="24" viewBox="0 0 24 24" fill="none" xmlns="http://www.w3.org/2000/svg">
<path d="M7.28571 20.1429H15.8571V9L9.85714 3L8.78571 4.07143C8.68571 4.17143 8.60357 4.30714 8.53929 4.47857C8.475 4.65 8.44286 4.81429 8.44286 4.97143V5.27143L9.38571 9H4.71428C4.25714 9 3.85714 9.17143 3.51429 9.51429C3.17143 9.85714 3 10.2571 3 10.7143V12.4286C3 12.5286 3.01071 12.6357 3.03214 12.75C3.05357 12.8643 3.08571 12.9714 3.12857 13.0714L5.7 19.1143C5.82857 19.4 6.04286 19.6429 6.34286 19.8429C6.64286 20.0429 6.95714 20.1429 7.28571 20.1429ZM17.5714 9V20.1429H21V9H17.5714Z" fill="black"/>
</svg>

<svg xmlns="http://www.w3.org/2000/svg" width="24" height="24" fill="none" viewBox="0 0 24 24">
  <path fill="#000" d="M7.286 20.143h8.571V9l-6-6-1.071 1.071c-.1.1-.182.236-.247.408a1.402 1.402 0 0 0-.096.492v.3L9.386 9H4.714c-.457 0-.857.171-1.2.514-.343.343-.514.743-.514 1.2v1.715a1.749 1.749 0 0 0 .129.642L5.7 19.114c.129.286.343.529.643.729.3.2.614.3.943.3ZM17.57 9v11.143H21V9h-3.429Z"/>
</svg>
